2023_japangoods/img/kv/subtit_bg.svg

<svg width="123" height="124" viewBox="0 0 123 124" fill="none" xmlns="http://www.w3.org/2000/svg">
<path fill-rule="evenodd" clip-rule="evenodd" d="M104.842 101.906C98.8717 101.906 95.389 104.792 94.394 110.663C93.399 116.533 90.2149 118.225 84.7422 115.837C79.2695 113.349 74.8913 114.643 71.6077 119.618C68.3241 124.593 64.6424 124.792 60.6623 120.414C56.6822 115.936 52.2045 115.339 47.1298 118.524C42.0551 121.708 38.672 120.414 36.881 114.742C35.0899 109.071 31.2093 106.683 25.3385 107.479C19.4678 108.374 16.7812 105.787 17.4778 99.9164C18.0748 94.0457 15.5872 90.2645 9.81599 88.573C4.04479 86.8814 2.75124 83.5978 5.73635 78.4236C8.72145 73.2494 7.92543 68.7718 3.34826 64.9906C-1.2289 61.2095 -1.1294 57.5279 3.74628 54.0452C8.62195 50.5626 9.71649 46.1845 7.02989 40.8113C4.3433 35.4381 5.93535 32.1545 11.8061 30.9604C17.6768 29.7664 20.4629 26.1843 20.1644 20.214C19.9654 14.2438 22.7515 11.9552 28.5227 13.1493C34.3934 14.4428 38.3735 12.2538 40.5626 6.78106C42.7517 1.20886 46.2343 0.213827 51.11 3.79595C55.8861 7.27858 60.4633 6.98007 64.742 2.80092C69.0206 -1.37823 72.6027 -0.880712 75.5878 4.29347C78.5729 9.46766 82.8516 11.0597 88.4238 8.97014C93.996 6.88056 97.0806 8.87064 97.6776 14.7413C98.2747 20.7116 101.558 23.7962 107.528 24.1942C113.499 24.5922 115.489 27.5773 113.698 33.249C111.807 38.9207 113.499 43.0999 118.872 45.886C124.146 48.6721 124.743 52.2542 120.762 56.6323C116.782 61.0105 116.583 65.5877 120.265 70.2643C123.947 74.941 123.051 78.5231 117.578 80.9112C112.106 83.2993 110.116 87.3789 111.608 93.1501C113.001 99.0209 110.812 101.906 104.842 101.906Z" fill="#073786"/>
</svg>

<svg width="123" height="124" fill="none" xmlns="http://www.w3.org/2000/svg"><path fill-rule="evenodd" clip-rule="evenodd" d="M104.842 101.906c-5.97 0-9.453 2.886-10.448 8.757-.995 5.87-4.18 7.562-9.652 5.174-5.473-2.488-9.85-1.194-13.134 3.781-3.284 4.975-6.966 5.174-10.946.796-3.98-4.478-8.457-5.075-13.532-1.89-5.075 3.184-8.458 1.89-10.249-3.782-1.791-5.671-5.672-8.059-11.543-7.263-5.87.895-8.557-1.692-7.86-7.563.597-5.87-1.89-9.651-7.662-11.343-5.771-1.692-7.065-4.975-4.08-10.15 2.985-5.174 2.19-9.651-2.388-13.432-4.577-3.782-4.477-7.463.398-10.946 4.876-3.482 5.97-7.86 3.284-13.234-2.687-5.373-1.095-8.657 4.776-9.85 5.87-1.195 8.657-4.777 8.358-10.747-.199-5.97 2.587-8.259 8.359-7.065 5.87 1.294 9.85-.895 12.04-6.368C42.752 1.21 46.234.214 51.11 3.796c4.776 3.483 9.353 3.184 13.632-.995 4.279-4.18 7.86-3.682 10.846 1.492 2.985 5.175 7.264 6.767 12.836 4.677 5.572-2.09 8.657-.1 9.254 5.771.597 5.97 3.88 9.055 9.85 9.453 5.971.398 7.961 3.383 6.17 9.055-1.891 5.672-.199 9.85 5.174 12.637 5.274 2.786 5.871 6.368 1.89 10.746-3.98 4.379-4.179 8.956-.497 13.632 3.682 4.677 2.786 8.26-2.687 10.647-5.472 2.388-7.462 6.468-5.97 12.24 1.393 5.87-.796 8.755-6.766 8.755Z" fill="#073786"/></svg>
